; generated by Slic3r Prusa Edition 1.39.0 on 2021-11-01 at 15:32:42

; 

; external perimeters extrusion width = 0.45mm
; perimeters extrusion width = 0.45mm
; infill extrusion width = 0.45mm
; solid infill extrusion width = 0.45mm
; top infill extrusion width = 0.45mm
; first layer extrusion width = 0.42mm

M107
M115 U3.1.0 ; tell printer latest fw version
M201 X9000 Y9000 Z500 E10000 ; sets maximum accelerations, mm/sec^2
M203 X500 Y500 Z12 E120 ; sets maximum feedrates, mm/sec
M204 S1500 T1500 ; sets acceleration (S) and retract acceleration (T)
M205 X10 Y10 Z0.2 E2.5 ; sets the jerk limits, mm/sec
M205 S0 T0 ; sets the minimum extruding and travel feed rate, mm/sec
M83  ; extruder relative mode
M104 S300 ; set extruder temp
M140 S170 ; set bed temp
M190 S170 ; wait for bed temp
M109 S300 ; wait for extruder temp
G4 P120000 ; wait 120 seconds for top of bed surface to equilibrate
G28 W ; home all without mesh bed level
G80 ; mesh bed leveling
G1 Y-3.0 F1000.0 ; go outside print area
G92 E0.0
G1 X60.0 E9.0  F1000.0 ; intro line
G1 X100.0 E12.5  F1000.0 ; intro line
G92 E0.0
M900 K30; Filament gcode
G21 ; set units to millimeters
G90 ; use absolute coordinates
M83 ; use relative distances for extrusion
;BEFORE_LAYER_CHANGE
;0.2


G1 E-0.80000 F2100.00000
G1 Z3.600 F7200.000
;AFTER_LAYER_CHANGE
;0.2
G1 X96.134 Y85.277 F7200.000
G1 Z3.200 F7200.000
G1 E0.80000 F2100.00000
M204 S1000
G1 F2100
G1 X96.627 Y84.469 E0.03116
G1 X97.032 Y84.092 E0.01819
G1 X97.507 Y83.802 E0.01833
G1 X98.030 Y83.614 E0.01833
G1 X98.581 Y83.534 E0.01833
G1 X118.701 Y83.532 E0.66238
G1 X119.702 Y83.722 E0.03355
G1 X120.563 Y84.260 E0.03342
G1 X121.170 Y85.074 E0.03342
G1 X121.441 Y86.056 E0.03355
G1 X121.450 Y106.372 E0.66885
G1 X121.259 Y107.295 E0.03103
G1 X120.767 Y108.103 E0.03116
G1 X120.342 Y108.494 E0.01900
G1 X119.846 Y108.789 E0.01900
G1 X119.299 Y108.973 E0.01900
G1 X118.726 Y109.040 E0.01900
G1 X98.611 Y109.039 E0.66224
G1 X97.688 Y108.849 E0.03103
G1 X96.880 Y108.356 E0.03116
G1 X96.488 Y107.932 E0.01900
G1 X96.194 Y107.435 E0.01900
G1 X96.009 Y106.889 E0.01900
G1 X95.943 Y106.315 E0.01900
G1 X95.944 Y86.200 E0.66224
G1 X96.122 Y85.336 E0.02905
G1 F5760
G1 X96.627 Y84.469 E-0.34745
G1 F5760
G1 X97.032 Y84.092 E-0.19138
G1 F5760
G1 X97.507 Y83.802 E-0.19280
G1 F5760
G1 X97.584 Y83.775 E-0.02837
G1 E-0.04000 F2100.00000
G1 Z3.800 F7200.000
G1 X97.685 Y84.135 F7200.000
G1 Z3.200 F7200.000
G1 E0.80000 F2100.00000
G1 F2100
G1 X98.608 Y83.911 E0.03126
G1 X118.701 Y83.909 E0.66148
G1 X119.567 Y84.074 E0.02905
G1 X120.314 Y84.544 E0.02905
G1 X120.838 Y85.254 E0.02905
G1 X121.067 Y86.110 E0.02917
G1 X121.073 Y106.351 E0.66637
G1 X120.906 Y107.164 E0.02732
G1 X120.470 Y107.870 E0.02732
G1 X120.104 Y108.202 E0.01627
G1 X119.677 Y108.452 E0.01627
G1 X119.208 Y108.607 E0.01627
G1 X118.717 Y108.663 E0.01627
G1 X98.632 Y108.662 E0.66123
G1 X97.819 Y108.495 E0.02732
G1 X97.113 Y108.059 E0.02732
G1 X96.781 Y107.693 E0.01627
G1 X96.531 Y107.266 E0.01627
G1 X96.375 Y106.797 E0.01627
G1 X96.320 Y106.306 E0.01627
G1 X96.321 Y86.221 E0.66123
G1 X96.488 Y85.408 E0.02732
G1 X96.924 Y84.702 E0.02732
G1 X97.637 Y84.171 E0.02929
G1 F5760
G1 X98.608 Y83.911 E-0.34813
G1 F5760
G1 X99.797 Y83.910 E-0.41187
G1 E-0.04000 F2100.00000
G1 Z3.800 F7200.000
G1 X99.661 Y87.250 F7200.000
G1 Z3.200 F7200.000
G1 E0.80000 F2100.00000
G1 F2100
G1 X117.733 Y87.250 E0.59496
G1 X117.733 Y105.322 E0.59496
G1 X99.661 Y105.322 E0.59496
G1 X99.661 Y87.310 E0.59298
G1 X99.284 Y86.873 F7200.000
G1 F2100
G1 X118.110 Y86.873 E0.61978
G1 X118.110 Y105.699 E0.61978
G1 X99.284 Y105.699 E0.61978
G1 X99.284 Y86.933 E0.61781
G1 X98.907 Y86.496 F7200.000
G1 F2100
G1 X118.487 Y86.496 E0.64461
G1 X118.487 Y106.076 E0.64461
G1 X98.907 Y106.076 E0.64461
G1 X98.907 Y86.556 E0.64264
G1 X99.293 Y86.600 F7200.000
G1 F5760
G1 X101.101 Y86.549 E-0.76000
G1 E-0.04000 F2100.00000
G1 Z3.800 F7200.000
G1 X99.774 Y104.446 F7200.000
G1 Z3.200 F7200.000
G1 E0.80000 F2100.00000
G1 F2100
G1 X100.367 Y105.039 E0.02765
G1 X100.901 Y105.039 E0.01759
G1 X99.944 Y104.082 E0.04462
G1 X99.944 Y103.548 E0.01759
G1 X101.435 Y105.039 E0.06950
G1 X101.969 Y105.039 E0.01759
G1 X99.944 Y103.014 E0.09438
G1 X99.944 Y102.480 E0.01759
G1 X102.503 Y105.039 E0.11926
G1 X103.037 Y105.039 E0.01759
G1 X99.944 Y101.946 E0.14414
G1 X99.944 Y101.412 E0.01759
G1 X103.570 Y105.039 E0.16902
G1 X104.104 Y105.039 E0.01759
G1 X99.944 Y100.879 E0.19390
G1 X99.944 Y100.345 E0.01759
G1 X104.638 Y105.039 E0.21879
G1 X105.172 Y105.039 E0.01759
G1 X99.944 Y99.811 E0.24367
G1 X99.944 Y99.277 E0.01759
G1 X105.706 Y105.039 E0.26855
G1 X106.240 Y105.039 E0.01759
G1 X99.944 Y98.743 E0.29343
G1 X99.944 Y98.210 E0.01759
G1 X106.773 Y105.039 E0.31831
G1 X107.307 Y105.039 E0.01759
G1 X99.944 Y97.676 E0.34319
G1 X99.944 Y97.142 E0.01759
G1 X107.841 Y105.039 E0.36807
G1 X108.375 Y105.039 E0.01759
G1 X99.944 Y96.608 E0.39295
G1 X99.944 Y96.074 E0.01759
G1 X108.909 Y105.039 E0.41783
G1 X109.442 Y105.039 E0.01759
G1 X99.944 Y95.540 E0.44271
G1 X99.944 Y95.007 E0.01759
G1 X109.976 Y105.039 E0.46759
G1 X110.510 Y105.039 E0.01759
G1 X99.944 Y94.473 E0.49247
G1 X99.944 Y93.939 E0.01759
G1 X111.044 Y105.039 E0.51735
G1 X111.578 Y105.039 E0.01759
G1 X99.944 Y93.405 E0.54223
G1 X99.944 Y92.871 E0.01759
G1 X112.112 Y105.039 E0.56711
G1 X112.645 Y105.039 E0.01759
G1 X99.944 Y92.337 E0.59199
G1 X99.944 Y91.804 E0.01759
G1 X113.179 Y105.039 E0.61687
G1 X113.713 Y105.039 E0.01759
G1 X99.944 Y91.270 E0.64175
G1 X99.944 Y90.736 E0.01759
G1 X114.247 Y105.039 E0.66663
G1 X114.781 Y105.039 E0.01759
G1 X99.944 Y90.202 E0.69151
G1 X99.944 Y89.668 E0.01759
G1 X115.315 Y105.039 E0.71639
G1 X115.848 Y105.039 E0.01759
G1 X99.944 Y89.134 E0.74127
G1 X99.944 Y88.601 E0.01759
G1 X116.382 Y105.039 E0.76615
G1 X116.916 Y105.039 E0.01759
G1 X99.944 Y88.067 E0.79103
G1 X99.944 Y87.533 E0.01759
G1 X117.450 Y105.039 E0.81591
G1 X117.450 Y104.505 E0.01759
G1 X100.478 Y87.533 E0.79103
G1 X101.011 Y87.533 E0.01759
G1 X117.450 Y103.971 E0.76615
G1 X117.450 Y103.438 E0.01759
G1 X101.545 Y87.533 E0.74127
G1 X102.079 Y87.533 E0.01759
G1 X117.450 Y102.904 E0.71639
G1 X117.450 Y102.370 E0.01759
G1 X102.613 Y87.533 E0.69151
G1 X103.147 Y87.533 E0.01759
G1 X117.450 Y101.836 E0.66663
G1 X117.450 Y101.302 E0.01759
G1 X103.681 Y87.533 E0.64175
G1 X104.214 Y87.533 E0.01759
G1 X117.450 Y100.769 E0.61687
G1 X117.450 Y100.235 E0.01759
G1 X104.748 Y87.533 E0.59199
G1 X105.282 Y87.533 E0.01759
G1 X117.450 Y99.701 E0.56711
G1 X117.450 Y99.167 E0.01759
G1 X105.816 Y87.533 E0.54223
G1 X106.350 Y87.533 E0.01759
G1 X117.450 Y98.633 E0.51735
G1 X117.450 Y98.099 E0.01759
G1 X106.883 Y87.533 E0.49247
G1 X107.417 Y87.533 E0.01759
G1 X117.450 Y97.566 E0.46759
G1 X117.450 Y97.032 E0.01759
G1 X107.951 Y87.533 E0.44271
G1 X108.485 Y87.533 E0.01759
G1 X117.450 Y96.498 E0.41783
G1 X117.450 Y95.964 E0.01759
G1 X109.019 Y87.533 E0.39295
G1 X109.553 Y87.533 E0.01759
G1 X117.450 Y95.430 E0.36807
G1 X117.450 Y94.896 E0.01759
G1 X110.086 Y87.533 E0.34319
G1 X110.620 Y87.533 E0.01759
G1 X117.450 Y94.363 E0.31831
G1 X117.450 Y93.829 E0.01759
G1 X111.154 Y87.533 E0.29343
G1 X111.688 Y87.533 E0.01759
G1 X117.450 Y93.295 E0.26855
G1 X117.450 Y92.761 E0.01759
G1 X112.222 Y87.533 E0.24367
G1 X112.756 Y87.533 E0.01759
G1 X117.450 Y92.227 E0.21879
G1 X117.450 Y91.693 E0.01759
G1 X113.289 Y87.533 E0.19391
G1 X113.823 Y87.533 E0.01759
G1 X117.450 Y91.160 E0.16903
G1 X117.450 Y90.626 E0.01759
G1 X114.357 Y87.533 E0.14415
G1 X114.891 Y87.533 E0.01759
G1 X117.450 Y90.092 E0.11927
G1 X117.450 Y89.558 E0.01759
G1 X115.425 Y87.533 E0.09439
G1 X115.959 Y87.533 E0.01759
G1 X117.450 Y89.024 E0.06951
G1 X117.450 Y88.491 E0.01759
G1 X116.492 Y87.533 E0.04463
G1 X117.026 Y87.533 E0.01759
G1 X117.620 Y88.126 E0.02766
;BEFORE_LAYER_CHANGE
;0.35


G1 F5760
G1 X117.026 Y87.533 E-0.29067
G1 F5760
G1 X116.492 Y87.533 E-0.18489
G1 F5760
G1 X117.073 Y88.114 E-0.28444
G1 E-0.04000 F2100.00000
G1 Z3.800 F7200.000
;AFTER_LAYER_CHANGE
;0.35
M104 S295 ; set temperature
G1 X121.170 Y85.074 F7200.000
G1 Z3.350 F7200.000
G1 E0.80000 F2100.00000
G1 F3000
G1 X121.441 Y86.056 E0.02588
G1 X121.450 Y106.372 E0.51591
G1 X121.259 Y107.295 E0.02393
G1 X120.767 Y108.103 E0.02404
G1 X120.342 Y108.494 E0.01465
G1 X119.846 Y108.789 E0.01465
G1 X119.299 Y108.973 E0.01465
G1 X118.726 Y109.040 E0.01465
G1 X98.611 Y109.039 E0.51082
G1 X97.688 Y108.849 E0.02393
G1 X96.880 Y108.356 E0.02404
G1 X96.488 Y107.932 E0.01465
G1 X96.194 Y107.435 E0.01465
G1 X96.009 Y106.889 E0.01465
G1 X95.943 Y106.315 E0.01465
G1 X95.944 Y86.200 E0.51082
G1 X96.134 Y85.277 E0.02393
G1 X96.627 Y84.469 E0.02404
G1 X97.032 Y84.092 E0.01403
G1 X97.507 Y83.802 E0.01414
G1 X98.030 Y83.614 E0.01414
G1 X98.581 Y83.534 E0.01414
G1 X118.701 Y83.532 E0.51092
G1 X119.702 Y83.722 E0.02588
G1 X120.563 Y84.260 E0.02578
G1 X121.134 Y85.026 E0.02425
G1 F5760
G1 X121.441 Y86.056 E-0.37241
G1 F5760
G1 X121.442 Y87.175 E-0.38759
G1 E-0.04000 F2100.00000
G1 Z3.950 F7200.000
G1 X117.636 Y87.347 F7200.000
G1 Z3.350 F7200.000
G1 E0.80000 F2100.00000
M204 S800
G1 F3000
G1 X117.636 Y105.225 E0.48914
G1 X99.757 Y105.225 E0.48914
G1 X99.757 Y87.347 E0.48914
G1 X117.576 Y87.347 E0.48750
M204 S1000
G1 X118.054 Y86.929 F7200.000
M204 S800
G1 F3000
G1 X118.054 Y105.643 E0.51200
G1 X99.340 Y105.643 E0.51200
G1 X99.340 Y86.929 E0.51200
G1 X117.994 Y86.929 E0.51036
M204 S1000
G1 X118.472 Y86.511 F7200.000
M204 S800
G1 F3000
G1 X118.472 Y106.061 E0.53486
G1 X98.922 Y106.061 E0.53486
G1 X98.922 Y86.511 E0.53486
G1 X118.412 Y86.511 E0.53322
M204 S1000
G1 X118.368 Y86.897 F7200.000
G1 F5760
G1 X118.419 Y88.705 E-0.76000
G1 E-0.04000 F2100.00000
G1 Z3.950 F7200.000
G1 X100.739 Y87.472 F7200.000
G1 Z3.350 F7200.000
G1 E0.80000 F2100.00000
M204 S2000
G1 F3000
G1 X100.071 Y88.141 E0.02622
G1 X100.071 Y88.740 E0.01661
G1 X101.150 Y87.660 E0.04234
G1 X101.749 Y87.660 E0.01661
G1 X100.071 Y89.339 E0.06584
G1 X100.071 Y89.938 E0.01661
G1 X102.348 Y87.660 E0.08933
G1 X102.947 Y87.660 E0.01661
G1 X100.071 Y90.536 E0.11282
G1 X100.071 Y91.135 E0.01661
G1 X103.546 Y87.660 E0.13631
G1 X104.145 Y87.660 E0.01661
G1 X100.071 Y91.734 E0.15981
G1 X100.071 Y92.333 E0.01661
G1 X104.744 Y87.660 E0.18330
G1 X105.343 Y87.660 E0.01661
G1 X100.071 Y92.932 E0.20679
G1 X100.071 Y93.531 E0.01661
G1 X105.942 Y87.660 E0.23029
G1 X106.541 Y87.660 E0.01661
G1 X100.071 Y94.130 E0.25378
G1 X100.071 Y94.729 E0.01661
G1 X107.140 Y87.660 E0.27727
G1 X107.739 Y87.660 E0.01661
G1 X100.071 Y95.328 E0.30077
G1 X100.071 Y95.927 E0.01661
G1 X108.338 Y87.660 E0.32426
G1 X108.937 Y87.660 E0.01661
G1 X100.071 Y96.526 E0.34775
G1 X100.071 Y97.125 E0.01661
G1 X109.536 Y87.660 E0.37124
G1 X110.135 Y87.660 E0.01661
G1 X100.071 Y97.724 E0.39474
G1 X100.071 Y98.323 E0.01661
G1 X110.734 Y87.660 E0.41823
G1 X111.333 Y87.660 E0.01661
G1 X100.071 Y98.922 E0.44172
G1 X100.071 Y99.521 E0.01661
G1 X111.932 Y87.660 E0.46522
G1 X112.531 Y87.660 E0.01661
G1 X100.071 Y100.120 E0.48871
G1 X100.071 Y100.719 E0.01661
G1 X113.130 Y87.660 E0.51220
G1 X113.729 Y87.660 E0.01661
G1 X100.071 Y101.318 E0.53569
G1 X100.071 Y101.917 E0.01661
G1 X114.328 Y87.660 E0.55919
G1 X114.927 Y87.660 E0.01661
G1 X100.071 Y102.516 E0.58268
G1 X100.071 Y103.115 E0.01661
G1 X115.526 Y87.660 E0.60617
G1 X116.125 Y87.660 E0.01661
G1 X100.071 Y103.714 E0.62967
G1 X100.071 Y104.313 E0.01661
G1 X116.724 Y87.660 E0.65316
G1 X117.323 Y87.660 E0.01661
G1 X100.071 Y104.912 E0.67665
G1 X100.670 Y104.912 E0.01661
G1 X117.323 Y88.259 E0.65316
G1 X117.323 Y88.858 E0.01661
G1 X101.269 Y104.912 E0.62967
G1 X101.868 Y104.912 E0.01661
G1 X117.323 Y89.457 E0.60618
G1 X117.323 Y90.056 E0.01661
G1 X102.467 Y104.912 E0.58269
G1 X103.066 Y104.912 E0.01661
G1 X117.323 Y90.655 E0.55919
G1 X117.323 Y91.254 E0.01661
G1 X103.665 Y104.912 E0.53570
G1 X104.264 Y104.912 E0.01661
G1 X117.323 Y91.853 E0.51221
G1 X117.323 Y92.452 E0.01661
G1 X104.863 Y104.912 E0.48871
G1 X105.462 Y104.912 E0.01661
G1 X117.323 Y93.051 E0.46522
G1 X117.323 Y93.650 E0.01661
G1 X106.061 Y104.912 E0.44173
G1 X106.660 Y104.912 E0.01661
G1 X117.323 Y94.249 E0.41824
G1 X117.323 Y94.848 E0.01661
G1 X107.258 Y104.912 E0.39474
G1 X107.857 Y104.912 E0.01661
G1 X117.323 Y95.447 E0.37125
G1 X117.323 Y96.046 E0.01661
G1 X108.456 Y104.912 E0.34776
G1 X109.055 Y104.912 E0.01661
G1 X117.323 Y96.645 E0.32426
G1 X117.323 Y97.244 E0.01661
G1 X109.654 Y104.912 E0.30077
G1 X110.253 Y104.912 E0.01661
G1 X117.323 Y97.843 E0.27728
G1 X117.323 Y98.442 E0.01661
G1 X110.852 Y104.912 E0.25378
G1 X111.451 Y104.912 E0.01661
G1 X117.323 Y99.040 E0.23029
G1 X117.323 Y99.639 E0.01661
G1 X112.050 Y104.912 E0.20680
G1 X112.649 Y104.912 E0.01661
G1 X117.323 Y100.238 E0.18331
G1 X117.323 Y100.837 E0.01661
G1 X113.248 Y104.912 E0.15981
G1 X113.847 Y104.912 E0.01661
G1 X117.323 Y101.436 E0.13632
G1 X117.323 Y102.035 E0.01661
G1 X114.446 Y104.912 E0.11283
G1 X115.045 Y104.912 E0.01661
G1 X117.323 Y102.634 E0.08933
G1 X117.323 Y103.233 E0.01661
G1 X115.644 Y104.912 E0.06584
G1 X116.243 Y104.912 E0.01661
G1 X117.323 Y103.832 E0.04235
G1 X117.323 Y104.431 E0.01661
G1 X116.654 Y105.100 E0.02623
M204 S1000
;BEFORE_LAYER_CHANGE
;0.5


G1 F5760
G1 X117.323 Y104.431 E-0.32756
G1 F5760
G1 X117.323 Y103.832 E-0.20746
G1 F5760
G1 X116.864 Y104.292 E-0.22498
G1 E-0.04000 F2100.00000
G1 Z3.950 F7200.000
;AFTER_LAYER_CHANGE
;0.5
G1 X117.636 Y105.225 F7200.000
G1 Z3.500 F7200.000
G1 E0.80000 F2100.00000
M204 S800
G1 F3000
G1 X99.757 Y105.225 E0.48914
G1 X99.757 Y87.347 E0.48914
G1 X117.636 Y87.347 E0.48914
G1 X117.636 Y105.165 E0.48750
M204 S1000
G1 X118.054 Y105.643 F7200.000
M204 S800
G1 F3000
G1 X99.340 Y105.643 E0.51200
G1 X99.340 Y86.929 E0.51200
G1 X118.054 Y86.929 E0.51200
G1 X118.054 Y105.583 E0.51036
M204 S1000
G1 X118.472 Y106.061 F7200.000
M204 S800
G1 F3000
G1 X98.922 Y106.061 E0.53486
G1 X98.922 Y86.511 E0.53486
G1 X118.472 Y86.511 E0.53486
G1 X118.472 Y106.001 E0.53322
M204 S1000
G1 X118.085 Y105.957 F7200.000
G1 F5760
G1 X116.278 Y106.008 E-0.76000
G1 E-0.04000 F2100.00000
G1 Z4.100 F7200.000
G1 X117.511 Y88.329 F7200.000
G1 Z3.500 F7200.000
G1 E0.80000 F2100.00000
M204 S2000
G1 F3000
G1 X116.842 Y87.660 E0.02623
G1 X116.243 Y87.660 E0.01661
G1 X117.323 Y88.740 E0.04235
G1 X117.323 Y89.339 E0.01661
G1 X115.644 Y87.660 E0.06584
G1 X115.045 Y87.660 E0.01661
G1 X117.323 Y89.938 E0.08933
G1 X117.323 Y90.537 E0.01661
G1 X114.446 Y87.660 E0.11283
G1 X113.847 Y87.660 E0.01661
G1 X117.323 Y91.136 E0.13632
G1 X117.323 Y91.735 E0.01661
G1 X113.248 Y87.660 E0.15981
G1 X112.649 Y87.660 E0.01661
G1 X117.323 Y92.334 E0.18331
G1 X117.323 Y92.933 E0.01661
G1 X112.050 Y87.660 E0.20680
G1 X111.451 Y87.660 E0.01661
G1 X117.323 Y93.532 E0.23029
G1 X117.323 Y94.130 E0.01661
G1 X110.852 Y87.660 E0.25378
G1 X110.253 Y87.660 E0.01661
G1 X117.323 Y94.729 E0.27728
G1 X117.323 Y95.328 E0.01661
G1 X109.654 Y87.660 E0.30077
G1 X109.055 Y87.660 E0.01661
G1 X117.323 Y95.927 E0.32426
G1 X117.323 Y96.526 E0.01661
G1 X108.456 Y87.660 E0.34776
G1 X107.857 Y87.660 E0.01661
G1 X117.323 Y97.125 E0.37125
G1 X117.323 Y97.724 E0.01661
G1 X107.258 Y87.660 E0.39474
G1 X106.660 Y87.660 E0.01661
G1 X117.323 Y98.323 E0.41824
G1 X117.323 Y98.922 E0.01661
G1 X106.061 Y87.660 E0.44173
G1 X105.462 Y87.660 E0.01661
G1 X117.323 Y99.521 E0.46522
G1 X117.323 Y100.120 E0.01661
G1 X104.863 Y87.660 E0.48871
G1 X104.264 Y87.660 E0.01661
G1 X117.323 Y100.719 E0.51221
G1 X117.323 Y101.318 E0.01661
G1 X103.665 Y87.660 E0.53570
G1 X103.066 Y87.660 E0.01661
G1 X117.323 Y101.917 E0.55919
G1 X117.323 Y102.516 E0.01661
G1 X102.467 Y87.660 E0.58269
G1 X101.868 Y87.660 E0.01661
G1 X117.323 Y103.115 E0.60618
G1 X117.323 Y103.714 E0.01661
G1 X101.269 Y87.660 E0.62967
G1 X100.670 Y87.660 E0.01661
G1 X117.323 Y104.313 E0.65316
G1 X117.323 Y104.912 E0.01661
G1 X100.071 Y87.660 E0.67665
G1 X100.071 Y88.259 E0.01661
G1 X116.724 Y104.912 E0.65316
G1 X116.125 Y104.912 E0.01661
G1 X100.071 Y88.858 E0.62967
G1 X100.071 Y89.457 E0.01661
G1 X115.526 Y104.912 E0.60617
G1 X114.927 Y104.912 E0.01661
G1 X100.071 Y90.056 E0.58268
G1 X100.071 Y90.655 E0.01661
